app/dist/common/images/hail-cement-co.svg

<svg height="18" viewBox="0 0 18 18" width="18" xmlns="http://www.w3.org/2000/svg"><path d="m0 0h18v18h-18z" fill="#f0f3fa"/><path d="m9 15-4-4 .71-1 3.29 3.25z" fill="#58585a"/><path d="m9 13.25v1.75l4-3.78v-1.72z" fill="#a8a9ad"/><path d="m5 8.64v-1.72l4-3.92v1.74zm0 2.36v-1.67l4-3.83v1.7z" fill="#43aa42"/></svg>

<!-- by TradingView --><svg width="18" height="18" viewBox="0 0 18 18" xmlns="http://www.w3.org/2000/svg"><path fill="#F0F3FA" d="M0 0h18v18H0z"/><path d="m9 15-4-4 .71-1L9 13.25V15Z" fill="#58585A"/><path d="M9 13.25V15l4-3.78V9.5l-4 3.75Z" fill="#A8A9AD"/><path d="M5 8.64V6.92L9 3v1.74l-4 3.9ZM5 11V9.33L9 5.5v1.7L5 11Z" fill="#43AA42"/></svg>
